assets/images/header-grey.svg

<svg fill="none" height="701" viewBox="0 0 3024 701" width="3024" xmlns="http://www.w3.org/2000/svg"><path d="m1465.84 346.575c-29.89-23.55-198.95-106.667-275.92-112.208-76.97-5.542-146.6-42.944-171.8-60.953-28.865-26.782-94.563-82.8405-126.45-92.8146-9.117-2.8515-24.056-8.5291-42.682-15.6076-62.812-23.8704-167.54-63.6707-232.205-64.739159-.913-.015077-1.813.034446-2.703.147255-.889-.112809-1.79-.162332-2.702-.147255-64.665 1.068449-169.394 40.868759-232.205 64.739159-18.626 7.0783-33.566 12.7561-42.682 15.6076-31.887 9.9741-97.585 66.0326-126.448 92.8146-25.198 18.009-94.836 55.411-171.8044 60.953-11.0182.793-24.1207 3.063-38.23469375 6.633-84.48040625 21.371-212.06790625 85.396-237.68290625 105.575l-43.982 15.238-11.339 20.125 295.21991 319.063h1002.28009c113.25 0 1031.75-66.179 1473.75-55.179s547 53.429 547 53.429l285.07-317.313-11.34-20.125-43.98-15.238c-24.99-19.686-153.19-104.825-230.98-105.591-7.13 0-32.31-5.708-44.94-6.617-444.4-31.994-671.39-34.506-1150.68 0-76.97 5.541-246.02 88.658-275.92 112.208-16.48 10.83-30.29 15.193-43.32 15.009-13.71-.193-30.7-5.066-43.32-15.009z" fill="#c9cac9"/></svg>

<svg width="3024" height="701" viewBox="0 0 3024 701" fill="none" xmlns="http://www.w3.org/2000/svg">
    <path d="M1465.84 346.575C1435.95 323.025 1266.89 239.908 1189.92 234.367C1112.95 228.825 1043.32 191.423 1018.12 173.414C989.255 146.632 923.557 90.5735 891.67 80.5994C882.553 77.7479 867.614 72.0703 848.988 64.9918C786.176 41.1214 681.448 1.3211 616.783 0.252641C615.87 0.237564 614.97 0.287087 614.08 0.399896C613.191 0.287087 612.29 0.237564 611.378 0.252641C546.713 1.32109 441.984 41.1214 379.173 64.9918C360.547 72.0701 345.607 77.7479 336.491 80.5994C304.604 90.5735 238.906 146.632 210.043 173.414C184.845 191.423 115.207 228.825 38.2386 234.367C27.2204 235.16 14.1179 237.43 0.00390625 241C-84.4765 262.371 -212.064 326.396 -237.679 346.575L-281.661 361.813L-293 381.938L2.21991 701.001C2.21991 701.001 891.25 701.001 1004.5 701.001C1117.75 701.001 2036.25 634.822 2478.25 645.822C2920.25 656.822 3025.25 699.251 3025.25 699.251L3310.32 381.938L3298.98 361.813L3255 346.575C3230.01 326.889 3101.81 241.75 3024.02 240.984C3016.89 240.984 2991.71 235.276 2979.08 234.367C2534.68 202.373 2307.69 199.861 1828.4 234.367C1751.43 239.908 1582.38 323.025 1552.48 346.575C1536 357.405 1522.19 361.768 1509.16 361.584C1495.45 361.391 1478.46 356.518 1465.84 346.575Z" fill="#C9CAC9"/>
</svg>
